Gruvbox-Material-Icons/actions/symbolic/chat-message-new-symbolic.svg

<svg width="16" height="16" version="1.1" viewBox="0 0 16 16" xmlns="http://www.w3.org/2000/svg">
  <defs>
    <style type="text/css">.ColorScheme-Text { color:#ebdbb2; } .ColorScheme-Highlight { color:#458588; }</style>
  </defs>
 <path class="ColorScheme-Text" fill="currentColor" d="M 2.5 1 C 1.115 1 0 2.1162718 0 3.5039062 L 0 10.517578 C 0 11.905212 1.1150052 12.996222 2.5 13 L 10.875 13 L 12.953125 14.998047 L 14 15 L 14 13 C 15.14126 12.767208 16 11.731753 16 10.517578 L 16 3.5039062 C 16 2.1162718 14.885 1 13.5 1 L 2.5 1 z M 2.5 3 L 13.5 3 C 13.777 3 14 3.223 14 3.5 L 14 10.5 C 14 10.777 13.777 11 13.5 11 L 2.5 11 C 2.223 11 2 10.777 2 10.5 L 2 3.5 C 2 3.223 2.223 3 2.5 3 z M 7 4 L 7 6 L 5 6 L 5 8 L 7 8 L 7 10 L 9 10 L 9 8 L 11 8 L 11 6 L 9 6 L 9 4 L 7 4 z"/>
</svg>

<svg width="16" height="16" version="1.1" viewBox="0 0 16 16" xmlns="http://www.w3.org/2000/svg">
  <defs>
    <style id="current-color-scheme" type="text/css">.ColorScheme-Text { color:#ebdbb2; } .ColorScheme-Highlight { color:#458588; }</style>
  </defs>
  <path class="ColorScheme-Text" d="m2.5 1c-1.385 0-2.5 1.116-2.5 2.504v7.014c0 1.388 1.115 2.479 2.5 2.482h8.375l2.078 1.998 1.047 0.001953v-2c1.141-0.2328 2-1.268 2-2.482v-7.014c0-1.388-1.115-2.504-2.5-2.504h-11zm0 2h11c0.277 0 0.5 0.223 0.5 0.5v7c0 0.277-0.223 0.5-0.5 0.5h-11c-0.277 0-0.5-0.223-0.5-0.5v-7c0-0.277 0.223-0.5 0.5-0.5zm4.5 1v2h-2v2h2v2h2v-2h2v-2h-2v-2h-2z" fill="currentColor"/>
</svg>
